public/logos/deno.svg

<svg xmlns="http://www.w3.org/2000/svg" width="580" height="580" fill="none"><g clip-path="url(#a)"><path fill="#fff" fill-rule="evenodd" d="M300.227 69.242c121.29 5.642 215.181 108.695 209.539 229.985-5.642 121.29-108.695 215.18-229.985 209.538-121.29-5.643-215.182-108.694-209.54-229.984C75.885 157.491 178.938 63.6 300.227 69.241Zm51.437 264.904c-13.886-.683-27.595-3.003-38.617-4.846-8.381-1.402-16.33-3.611-22.856-5.852a2.577 2.577 0 0 0-2.932.879c-.678.906-.776 2.221-.019 3.061 3.08 3.418 12.85 10.538 20.442 13.807-6.49 5.358-10.928 17.61-12.677 23.953-2.348 8.511-2.681 20.801-2.113 25.312 2.287 18.145 8.96 34.406 25.48 48.632 11.565 9.957 28.299 16.763 45.403 17.068 23.603.42 51.878-9.72 74.075-32.513 29.019-31.815 48.031-73.183 51.56-119.405 8.404-110.062-74.129-206.241-184.191-214.646-110.061-8.404-206.24 74.13-214.644 184.191-4.353 56.998 15.684 110.275 51.307 149.56a3.186 3.186 0 0 0 5.421-2.976c-26.418-103.478 30.89-215.167 94.856-250.516 23.748-13.124 46.878-18.113 67.66-9.709 31.818 12.865 50.009 34.196 89.388 52.138 39.38 17.94 43.639 47.85 32.662 78.088-10.977 30.239-46.345 45.437-80.205 43.774Zm-68.906-160.059c-12.906 1.01-21.38 16.984-22.489 27.26-1.115 10.275 3.985 27.234 20.801 26.903 19.693-.388 25.676-17.245 23.516-33.555-1.622-12.25-11.039-21.454-21.828-20.608Z" clip-rule="evenodd"/></g><defs><clipPath id="a"><path fill="#fff" d="M70 69h441v441H70z"/></clipPath></defs></svg>

<svg width="580" height="580" viewBox="0 0 580 580" fill="none" xmlns="http://www.w3.org/2000/svg">
<g clip-path="url(#clip0_6_9)">
<path fill-rule="evenodd" clip-rule="evenodd" d="M300.227 69.2418C421.517 74.884 515.408 177.937 509.766 299.227C504.124 420.517 401.071 514.407 279.781 508.765C158.491 503.122 64.5994 400.071 70.2415 278.781C75.8837 157.491 178.937 63.5997 300.227 69.2418ZM351.664 334.146C337.778 333.463 324.069 331.143 313.047 329.3C304.666 327.898 296.717 325.689 290.191 323.448C289.126 323.066 287.937 323.423 287.259 324.327C286.581 325.233 286.483 326.548 287.24 327.388C290.32 330.806 300.09 337.926 307.682 341.195C301.192 346.553 296.754 358.805 295.005 365.148C292.657 373.659 292.324 385.949 292.892 390.46C295.179 408.605 301.852 424.866 318.372 439.092C329.937 449.049 346.671 455.855 363.775 456.16C387.378 456.58 415.653 446.44 437.85 423.647C466.869 391.832 485.881 350.464 489.41 304.242C497.814 194.18 415.281 98.0006 305.219 89.5965C195.158 81.1925 98.9792 163.726 90.575 273.787C86.2225 330.785 106.259 384.062 141.882 423.347C142.874 424.425 144.474 424.688 145.759 423.983C147.043 423.278 147.68 421.787 147.303 420.371C120.885 316.893 178.193 205.204 242.159 169.855C265.907 156.731 289.037 151.742 309.819 160.146C341.637 173.011 359.828 194.342 399.207 212.284C438.587 230.224 442.846 260.134 431.869 290.372C420.892 320.611 385.524 335.809 351.664 334.146ZM282.758 174.087C269.852 175.097 261.378 191.071 260.269 201.347C259.154 211.622 264.254 228.581 281.07 228.25C300.763 227.862 306.746 211.005 304.586 194.695C302.964 182.445 293.547 173.241 282.758 174.087Z" fill="white"/>
</g>
<defs>
<clipPath id="clip0_6_9">
<rect width="441" height="441" fill="white" transform="translate(70 69)"/>
</clipPath>
</defs>
</svg>
